assets/icons/qvision/lightbulb_outline.svg

<svg xmlns="http://www.w3.org/2000/svg" enable-background="new 0 0 24 24" height="24" viewBox="0 0 24 24" width="24"><g><rect fill="none" height="24" width="24"/></g><g><g><g><path d="M9,21c0,0.55,0.45,1,1,1h4c0.55,0,1-0.45,1-1v-1H9V21z M12,2C8.14,2,5,5.14,5,9c0,2.38,1.19,4.47,3,5.74V17 c0,0.55,0.45,1,1,1h6c0.55,0,1-0.45,1-1v-2.26c1.81-1.27,3-3.36,3-5.74C19,5.14,15.86,2,12,2z M14,13.7V16h-4v-2.3 C8.48,12.63,7,11.53,7,9c0-2.76,2.24-5,5-5s5,2.24,5,5C17,11.49,15.49,12.65,14,13.7z"/></g></g></g></svg>

<svg width="24" height="24" viewBox="0 0 24 24" fill="none" xmlns="http://www.w3.org/2000/svg">
<g clip-path="url(#clip0_147_4368)">
<path d="M9 21C9 21.55 9.45 22 10 22H14C14.55 22 15 21.55 15 21V20H9V21ZM12 2C8.14 2 5 5.14 5 9C5 11.38 6.19 13.47 8 14.74V17C8 17.55 8.45 18 9 18H15C15.55 18 16 17.55 16 17V14.74C17.81 13.47 19 11.38 19 9C19 5.14 15.86 2 12 2ZM14 13.7V16H10V13.7C8.48 12.63 7 11.53 7 9C7 6.24 9.24 4 12 4C14.76 4 17 6.24 17 9C17 11.49 15.49 12.65 14 13.7Z" fill="#323232"/>
</g>
<defs>
<clipPath id="clip0_147_4368">
<rect width="24" height="24" fill="white"/>
</clipPath>
</defs>
</svg>
